static/img/mobile/button-danger.svg

<svg fill="none" height="48" viewBox="0 0 127 48" width="127" xmlns="http://www.w3.org/2000/svg" xmlns:xlink="http://www.w3.org/1999/xlink"><clipPath id="a"><path d="m16 12h95v24h-95z"/></clipPath><rect fill="#da212c" height="48" rx="4" width="127"/><g clip-path="url(#a)" fill="#fff"><path d="m28 14c-5.53 0-10 4.47-10 10s4.47 10 10 10 10-4.47 10-10-4.47-10-10-10zm4.3 14.3c-.39.39-1.02.39-1.41 0l-2.89-2.89-2.89 2.89c-.39.39-1.02.39-1.41 0s-.39-1.02 0-1.41l2.89-2.89-2.89-2.89c-.39-.39-.39-1.02 0-1.41s1.02-.39 1.41 0l2.89 2.89 2.89-2.89c.39-.39 1.02-.39 1.41 0s.39 1.02 0 1.41l-2.89 2.89 2.89 2.89c.38.38.38 1.02 0 1.41z"/><path d="m59.2266 24.1797c0 1.2864-.2396 2.362-.7188 3.2265-.4792.8594-1.1745 1.5079-2.0859 1.9454-.9115.4323-2.0104.6484-3.2969.6484h-3.1719v-11.4219h3.5157c1.1822 0 2.2031.2136 3.0624.6407.8594.4218 1.5235 1.0494 1.9922 1.8828.4688.8281.7032 1.8541.7032 3.0781zm-1.9532.0547c0-.9375-.1484-1.7084-.4453-2.3125-.2916-.6042-.7239-1.0521-1.2969-1.3438-.5677-.2969-1.2682-.4453-2.1015-.4453h-1.6016v8.2969h1.3281c1.3803 0 2.4115-.3516 3.0938-1.0547s1.0234-1.75 1.0234-3.1406zm7.8672-3.0469c1.0938 0 1.9193.2422 2.4766.7266.5625.4843.8437 1.2395.8437 2.2656v5.8203h-1.3047l-.3515-1.2266h-.0625c-.2448.3125-.4974.5704-.7578.7735s-.5625.3541-.9063.4531c-.3385.1042-.7526.1562-1.2422.1562-.5156 0-.9765-.0937-1.3828-.2812-.4062-.1927-.7265-.4844-.9609-.875s-.3516-.8854-.3516-1.4844c0-.8906.3308-1.5599.9922-2.0078.6667-.4479 1.6719-.6953 3.0156-.7422l1.5-.0547v-.4531c0-.5989-.1406-1.026-.4218-1.2812-.2761-.2552-.6667-.3828-1.1719-.3828-.4323 0-.8516.0624-1.2578.1874-.4063.125-.8021.2787-1.1875.461l-.5938-1.2969c.4219-.2239.9011-.4062 1.4375-.5469.5417-.1406 1.1042-.2109 1.6875-.2109zm1.5 4.6797-1.1172.039c-.9166.0313-1.5599.1876-1.9296.4688-.3698.2812-.5547.6667-.5547 1.1562 0 .4271.1276.7396.3828.9376.2552.1927.5911.289 1.0078.289.6354 0 1.1614-.1797 1.5781-.539.4219-.3646.6328-.8985.6328-1.6016zm9.1485-4.6797c.9739 0 1.7317.2526 2.2734.7578.5469.5.8203 1.3047.8203 2.4141v5.6406h-1.8359v-5.2969c0-.6719-.138-1.1745-.4141-1.5078-.276-.3385-.7031-.5078-1.2812-.5078-.8386 0-1.4219.2578-1.75.7734-.323.5157-.4844 1.2631-.4844 2.2422v4.2969h-1.836v-8.6484h1.4297l.2579 1.1718h.1015c.1875-.302.4193-.5494.6953-.7422.2813-.1979.5938-.3463.9375-.4453.349-.0989.711-.1484 1.086-.1484zm8.3828 12.6563c-1.1719 0-2.0703-.211-2.6953-.6329-.625-.4218-.9375-1.013-.9375-1.7734 0-.5313.1666-.9818.5-1.3516.3333-.3645.8099-.6171 1.4297-.7578-.2344-.1041-.4376-.2656-.6094-.4843-.1667-.224-.25-.4714-.25-.7422 0-.323.0911-.599.2734-.8282.1823-.2291.4557-.4505.8203-.664-.4531-.1927-.8177-.5052-1.0937-.9375-.2709-.4375-.4063-.9505-.4063-1.5391 0-.625.1328-1.1562.3985-1.5937.2656-.4427.6536-.7787 1.164-1.0079.5104-.2343 1.1276-.3515 1.8516-.3515.1562 0 .3255.0104.5078.0312.1875.0157.3594.0365.5156.0625.1615.0209.2839.0443.3672.0704h2.9922v1.0234l-1.4688.2734c.1407.1979.2527.4245.336.6797.0833.25.125.5235.125.8203 0 .8959-.3099 1.6016-.9297 2.1172-.6146.5104-1.4635.7656-2.5469.7656-.2604-.0104-.513-.0312-.7578-.0625-.1875.1146-.3307.2422-.4297.3829-.0989.1354-.1484.289-.1484.4609 0 .1406.0495.2552.1484.3437.099.0834.2448.1459.4375.1875.1979.0417.4375.0625.7188.0625h1.4922c.9479 0 1.6718.2006 2.1718.6016s.75.9896.75 1.7656c0 .9844-.4062 1.7422-1.2187 2.2735-.8125.5364-1.9818.8047-3.5078.8047zm.0703-1.2891c.6406 0 1.1797-.0625 1.6172-.1875s.7682-.3047.9922-.5391c.2239-.2291.3359-.5026.3359-.8203 0-.2812-.0703-.4974-.2109-.6484-.1407-.1511-.3516-.2552-.6328-.3125-.2813-.0573-.6303-.086-1.0469-.086h-1.3594c-.3385 0-.638.0521-.8984.1563-.2605.1094-.4636.2656-.6094.4687-.1406.2032-.2109.448-.2109.7344 0 .3958.1744.7005.5234.9141.3542.2135.8542.3203 1.5.3203zm.3594-6.7344c.5364 0 .9349-.1458 1.1953-.4375.2604-.2969.3906-.7135.3906-1.25 0-.5833-.1354-1.0208-.4063-1.3125-.2656-.2917-.6614-.4375-1.1874-.4375-.5157 0-.9089.1484-1.1797.4453-.2657.2969-.3985.737-.3985 1.3203 0 .5261.1328.9375.3985 1.2344.2708.2917.6666.4375 1.1875.4375zm9.6718-4.6328c.7709 0 1.4323.1589 1.9844.4766s.9766.7682 1.2734 1.3515c.2969.5834.4454 1.2813.4454 2.0938v.9844h-5.7735c.0209.8385.2448 1.4843.6719 1.9374.4323.4532 1.0365.6797 1.8125.6797.5521 0 1.0469-.052 1.4844-.1562.4427-.1094.8984-.2682 1.3672-.4766v1.4922c-.4323.2031-.8724.3516-1.3203.4453-.448.0938-.9844.1406-1.6094.1406-.849 0-1.5964-.164-2.2422-.4921-.6406-.3334-1.1432-.8282-1.5078-1.4844-.3594-.6563-.5391-1.4714-.5391-2.4453 0-.9688.1641-1.7917.4922-2.4688s.7891-1.1927 1.3828-1.5468c.5938-.3542 1.2865-.5313 2.0781-.5313zm0 1.3828c-.5781 0-1.0468.1875-1.4062.5625-.3542.375-.5625.9245-.625 1.6484h3.9375c-.0052-.4322-.0781-.8151-.2188-1.1484-.1354-.3333-.3437-.5937-.625-.7812-.276-.1875-.6302-.2813-1.0625-.2813zm10.4066-1.3828c.146 0 .304.0078.476.0234.172.0157.321.0365.446.0625l-.172 1.7188c-.11-.0313-.245-.0547-.407-.0703-.156-.0157-.296-.0235-.421-.0235-.329 0-.641.0547-.938.1641-.297.1042-.56.2656-.789.4844-.229.2135-.409.4817-.539.8047-.13.3229-.195.6979-.195 1.125v4.5234h-1.844v-8.6484h1.437l.25 1.5234h.086c.172-.3073.386-.5885.641-.8438.255-.2552.547-.4583.875-.6093.333-.1563.698-.2344 1.094-.2344zm4.359 5.3281h-1.383l-.375-7.9375h2.133zm-1.851 2.5156c0-.427.109-.7265.328-.8984.224-.1771.497-.2656.82-.2656.318 0 .588.0885.812.2656.224.1719.336.4714.336.8984 0 .4167-.112.7188-.336.9063-.224.1823-.494.2734-.812.2734-.323 0-.596-.0911-.82-.2734-.219-.1875-.328-.4896-.328-.9063z"/></g></svg>

<svg width="127" height="48" viewBox="0 0 127 48" fill="none" xmlns="http://www.w3.org/2000/svg">
<rect width="127" height="48" rx="4" fill="#DA212C"/>
<g clip-path="url(#clip0_480_103602)">
<path d="M28 14C22.47 14 18 18.47 18 24C18 29.53 22.47 34 28 34C33.53 34 38 29.53 38 24C38 18.47 33.53 14 28 14ZM32.3 28.3C31.91 28.69 31.28 28.69 30.89 28.3L28 25.41L25.11 28.3C24.72 28.69 24.09 28.69 23.7 28.3C23.31 27.91 23.31 27.28 23.7 26.89L26.59 24L23.7 21.11C23.31 20.72 23.31 20.09 23.7 19.7C24.09 19.31 24.72 19.31 25.11 19.7L28 22.59L30.89 19.7C31.28 19.31 31.91 19.31 32.3 19.7C32.69 20.09 32.69 20.72 32.3 21.11L29.41 24L32.3 26.89C32.68 27.27 32.68 27.91 32.3 28.3Z" fill="white"/>
<path d="M59.2266 24.1797C59.2266 25.4661 58.987 26.5417 58.5078 27.4062C58.0286 28.2656 57.3333 28.9141 56.4219 29.3516C55.5104 29.7839 54.4115 30 53.125 30H49.9531V18.5781H53.4688C54.651 18.5781 55.6719 18.7917 56.5312 19.2188C57.3906 19.6406 58.0547 20.2682 58.5234 21.1016C58.9922 21.9297 59.2266 22.9557 59.2266 24.1797ZM57.2734 24.2344C57.2734 23.2969 57.125 22.526 56.8281 21.9219C56.5365 21.3177 56.1042 20.8698 55.5312 20.5781C54.9635 20.2812 54.263 20.1328 53.4297 20.1328H51.8281V28.4297H53.1562C54.5365 28.4297 55.5677 28.0781 56.25 27.375C56.9323 26.6719 57.2734 25.625 57.2734 24.2344ZM65.1406 21.1875C66.2344 21.1875 67.0599 21.4297 67.6172 21.9141C68.1797 22.3984 68.4609 23.1536 68.4609 24.1797V30H67.1562L66.8047 28.7734H66.7422C66.4974 29.0859 66.2448 29.3438 65.9844 29.5469C65.724 29.75 65.4219 29.901 65.0781 30C64.7396 30.1042 64.3255 30.1562 63.8359 30.1562C63.3203 30.1562 62.8594 30.0625 62.4531 29.875C62.0469 29.6823 61.7266 29.3906 61.4922 29C61.2578 28.6094 61.1406 28.1146 61.1406 27.5156C61.1406 26.625 61.4714 25.9557 62.1328 25.5078C62.7995 25.0599 63.8047 24.8125 65.1484 24.7656L66.6484 24.7109V24.2578C66.6484 23.6589 66.5078 23.2318 66.2266 22.9766C65.9505 22.7214 65.5599 22.5938 65.0547 22.5938C64.6224 22.5938 64.2031 22.6562 63.7969 22.7812C63.3906 22.9062 62.9948 23.0599 62.6094 23.2422L62.0156 21.9453C62.4375 21.7214 62.9167 21.5391 63.4531 21.3984C63.9948 21.2578 64.5573 21.1875 65.1406 21.1875ZM66.6406 25.8672L65.5234 25.9062C64.6068 25.9375 63.9635 26.0938 63.5938 26.375C63.224 26.6562 63.0391 27.0417 63.0391 27.5312C63.0391 27.9583 63.1667 28.2708 63.4219 28.4688C63.6771 28.6615 64.013 28.7578 64.4297 28.7578C65.0651 28.7578 65.5911 28.5781 66.0078 28.2188C66.4297 27.8542 66.6406 27.3203 66.6406 26.6172V25.8672ZM75.7891 21.1875C76.763 21.1875 77.5208 21.4401 78.0625 21.9453C78.6094 22.4453 78.8828 23.25 78.8828 24.3594V30H77.0469V24.7031C77.0469 24.0312 76.9089 23.5286 76.6328 23.1953C76.3568 22.8568 75.9297 22.6875 75.3516 22.6875C74.513 22.6875 73.9297 22.9453 73.6016 23.4609C73.2786 23.9766 73.1172 24.724 73.1172 25.7031V30H71.2812V21.3516H72.7109L72.9688 22.5234H73.0703C73.2578 22.2214 73.4896 21.974 73.7656 21.7812C74.0469 21.5833 74.3594 21.4349 74.7031 21.3359C75.0521 21.237 75.4141 21.1875 75.7891 21.1875ZM84.1719 33.8438C83 33.8438 82.1016 33.6328 81.4766 33.2109C80.8516 32.7891 80.5391 32.1979 80.5391 31.4375C80.5391 30.9062 80.7057 30.4557 81.0391 30.0859C81.3724 29.7214 81.849 29.4688 82.4688 29.3281C82.2344 29.224 82.0312 29.0625 81.8594 28.8438C81.6927 28.6198 81.6094 28.3724 81.6094 28.1016C81.6094 27.7786 81.7005 27.5026 81.8828 27.2734C82.0651 27.0443 82.3385 26.8229 82.7031 26.6094C82.25 26.4167 81.8854 26.1042 81.6094 25.6719C81.3385 25.2344 81.2031 24.7214 81.2031 24.1328C81.2031 23.5078 81.3359 22.9766 81.6016 22.5391C81.8672 22.0964 82.2552 21.7604 82.7656 21.5312C83.276 21.2969 83.8932 21.1797 84.6172 21.1797C84.7734 21.1797 84.9427 21.1901 85.125 21.2109C85.3125 21.2266 85.4844 21.2474 85.6406 21.2734C85.8021 21.2943 85.9245 21.3177 86.0078 21.3438H89V22.3672L87.5312 22.6406C87.6719 22.8385 87.7839 23.0651 87.8672 23.3203C87.9505 23.5703 87.9922 23.8438 87.9922 24.1406C87.9922 25.0365 87.6823 25.7422 87.0625 26.2578C86.4479 26.7682 85.599 27.0234 84.5156 27.0234C84.2552 27.013 84.0026 26.9922 83.7578 26.9609C83.5703 27.0755 83.4271 27.2031 83.3281 27.3438C83.2292 27.4792 83.1797 27.6328 83.1797 27.8047C83.1797 27.9453 83.2292 28.0599 83.3281 28.1484C83.4271 28.2318 83.5729 28.2943 83.7656 28.3359C83.9635 28.3776 84.2031 28.3984 84.4844 28.3984H85.9766C86.9245 28.3984 87.6484 28.599 88.1484 29C88.6484 29.401 88.8984 29.9896 88.8984 30.7656C88.8984 31.75 88.4922 32.5078 87.6797 33.0391C86.8672 33.5755 85.6979 33.8438 84.1719 33.8438ZM84.2422 32.5547C84.8828 32.5547 85.4219 32.4922 85.8594 32.3672C86.2969 32.2422 86.6276 32.0625 86.8516 31.8281C87.0755 31.599 87.1875 31.3255 87.1875 31.0078C87.1875 30.7266 87.1172 30.5104 86.9766 30.3594C86.8359 30.2083 86.625 30.1042 86.3438 30.0469C86.0625 29.9896 85.7135 29.9609 85.2969 29.9609H83.9375C83.599 29.9609 83.2995 30.013 83.0391 30.1172C82.7786 30.2266 82.5755 30.3828 82.4297 30.5859C82.2891 30.7891 82.2188 31.0339 82.2188 31.3203C82.2188 31.7161 82.3932 32.0208 82.7422 32.2344C83.0964 32.4479 83.5964 32.5547 84.2422 32.5547ZM84.6016 25.8203C85.138 25.8203 85.5365 25.6745 85.7969 25.3828C86.0573 25.0859 86.1875 24.6693 86.1875 24.1328C86.1875 23.5495 86.0521 23.112 85.7812 22.8203C85.5156 22.5286 85.1198 22.3828 84.5938 22.3828C84.0781 22.3828 83.6849 22.5312 83.4141 22.8281C83.1484 23.125 83.0156 23.5651 83.0156 24.1484C83.0156 24.6745 83.1484 25.0859 83.4141 25.3828C83.6849 25.6745 84.0807 25.8203 84.6016 25.8203ZM94.2734 21.1875C95.0443 21.1875 95.7057 21.3464 96.2578 21.6641C96.8099 21.9818 97.2344 22.4323 97.5312 23.0156C97.8281 23.599 97.9766 24.2969 97.9766 25.1094V26.0938H92.2031C92.224 26.9323 92.4479 27.5781 92.875 28.0312C93.3073 28.4844 93.9115 28.7109 94.6875 28.7109C95.2396 28.7109 95.7344 28.6589 96.1719 28.5547C96.6146 28.4453 97.0703 28.2865 97.5391 28.0781V29.5703C97.1068 29.7734 96.6667 29.9219 96.2188 30.0156C95.7708 30.1094 95.2344 30.1562 94.6094 30.1562C93.7604 30.1562 93.013 29.9922 92.3672 29.6641C91.7266 29.3307 91.224 28.8359 90.8594 28.1797C90.5 27.5234 90.3203 26.7083 90.3203 25.7344C90.3203 24.7656 90.4844 23.9427 90.8125 23.2656C91.1406 22.5885 91.6016 22.0729 92.1953 21.7188C92.7891 21.3646 93.4818 21.1875 94.2734 21.1875ZM94.2734 22.5703C93.6953 22.5703 93.2266 22.7578 92.8672 23.1328C92.513 23.5078 92.3047 24.0573 92.2422 24.7812H96.1797C96.1745 24.349 96.1016 23.9661 95.9609 23.6328C95.8255 23.2995 95.6172 23.0391 95.3359 22.8516C95.0599 22.6641 94.7057 22.5703 94.2734 22.5703ZM104.68 21.1875C104.826 21.1875 104.984 21.1953 105.156 21.2109C105.328 21.2266 105.477 21.2474 105.602 21.2734L105.43 22.9922C105.32 22.9609 105.185 22.9375 105.023 22.9219C104.867 22.9062 104.727 22.8984 104.602 22.8984C104.273 22.8984 103.961 22.9531 103.664 23.0625C103.367 23.1667 103.104 23.3281 102.875 23.5469C102.646 23.7604 102.466 24.0286 102.336 24.3516C102.206 24.6745 102.141 25.0495 102.141 25.4766V30H100.297V21.3516H101.734L101.984 22.875H102.07C102.242 22.5677 102.456 22.2865 102.711 22.0312C102.966 21.776 103.258 21.5729 103.586 21.4219C103.919 21.2656 104.284 21.1875 104.68 21.1875ZM109.039 26.5156H107.656L107.281 18.5781H109.414L109.039 26.5156ZM107.188 29.0312C107.188 28.6042 107.297 28.3047 107.516 28.1328C107.74 27.9557 108.013 27.8672 108.336 27.8672C108.654 27.8672 108.924 27.9557 109.148 28.1328C109.372 28.3047 109.484 28.6042 109.484 29.0312C109.484 29.4479 109.372 29.75 109.148 29.9375C108.924 30.1198 108.654 30.2109 108.336 30.2109C108.013 30.2109 107.74 30.1198 107.516 29.9375C107.297 29.75 107.188 29.4479 107.188 29.0312Z" fill="white"/>
</g>
<defs>
<clipPath id="clip0_480_103602">
<rect width="95" height="24" fill="white" transform="translate(16 12)"/>
</clipPath>
</defs>
</svg>
